src/static/logos/runnable.svg

<?xml version="1.0" encoding="UTF-8" standalone="no"?>
<svg width="256px" height="217px" viewBox="0 0 256 217" version="1.1" xmlns="http://www.w3.org/2000/svg" xmlns:xlink="http://www.w3.org/1999/xlink" preserveAspectRatio="xMidYMid">
    <g>
        <path d="M233.979964,10.4111612 L27.4911184,0.0256275752 C12.2182749,-0.585286168 0,9.80024747 0,23.2403498 L0,33.0149697 L255.972858,40.9568484 L255.972858,33.0149697 C256.583772,20.7966948 246.809152,11.022075 233.979964,10.4111612 L233.979964,10.4111612 Z M32.3784284,20.1857811 C32.3784284,22.0185223 30.5456872,24.4621773 28.1020322,24.4621773 L20.1601535,24.4621773 C18.3274123,24.4621773 15.8837573,22.6294361 15.8837573,20.1857811 L15.8837573,12.8548162 C15.8837573,11.022075 17.7164986,8.57841998 20.1601535,8.57841998 L28.1020322,8.57841998 C29.9347734,8.57841998 32.3784284,10.4111612 32.3784284,12.8548162 L32.3784284,20.1857811 L32.3784284,20.1857811 Z M59.8695468,20.7966948 C59.8695468,22.6294361 58.0368056,25.073091 55.5931506,23.8512636 L48.2621857,23.8512636 C46.4294445,23.8512636 43.9857895,22.0185223 43.9857895,19.5748674 L43.9857895,12.2439024 C43.9857895,10.4111612 45.8185307,7.96750624 48.2621857,9.18933372 L56.2040644,9.18933372 C58.0368056,9.18933372 60.4804606,11.022075 60.4804606,13.4657299 L60.4804606,20.7966948 L59.8695468,20.7966948 L59.8695468,20.7966948 Z M86.1388378,21.4076086 C86.1388378,23.2403498 84.3060966,25.6840048 81.8624416,24.4621773 L73.9205629,24.4621773 C72.0878217,24.4621773 69.6441667,22.6294361 69.6441667,20.1857811 L69.6441667,12.8548162 C69.6441667,11.022075 71.476908,8.57841998 73.9205629,9.80024747 L81.8624416,9.80024747 C83.6951828,9.80024747 86.1388378,11.6329887 86.1388378,14.0766437 L86.1388378,21.4076086 L86.1388378,21.4076086 Z M0,193.685284 C0,207.125387 12.8291886,216.900006 27.4911184,216.900006 L233.979964,206.514473 C246.198239,205.903559 255.972858,196.128939 255.972858,183.910664 L255.972858,50.1205545 L0,42.1786759 L0,193.685284 L0,193.685284 Z M114.851784,97.1609128 C109.964474,92.2736028 109.964474,84.9426379 114.851784,80.0553279 C119.739094,75.168018 127.680972,75.7789317 132.568282,80.0553279 L167.390366,112.433756 C172.277676,116.710153 172.277676,124.652031 167.390366,127.7066 L132.568282,160.695942 C127.680972,165.583252 119.739094,165.583252 114.851784,160.695942 C109.964474,156.419546 109.964474,148.477667 114.851784,143.590357 L141.121075,119.153808 C141.121075,121.597462 114.851784,97.1609128 114.851784,97.1609128 L114.851784,97.1609128 Z" fill="#CCADD2"></path>
    </g>
</svg>

<svg width="256" height="217" xmlns="http://www.w3.org/2000/svg" preserveAspectRatio="xMidYMid"><path d="M233.98 10.411L27.491.026C12.218-.585 0 9.8 0 23.24v9.775l255.973 7.942v-7.942c.61-12.218-9.164-21.993-21.993-22.604zM32.378 20.186c0 1.833-1.832 4.276-4.276 4.276H20.16c-1.833 0-4.276-1.833-4.276-4.276v-7.331c0-1.833 1.832-4.277 4.276-4.277h7.942c1.833 0 4.276 1.833 4.276 4.277v7.33zm27.492.61c0 1.833-1.833 4.277-4.277 3.055h-7.33c-1.834 0-4.277-1.832-4.277-4.276v-7.331c0-1.833 1.833-4.276 4.276-3.055h7.942c1.833 0 4.276 1.833 4.276 4.277v7.33h-.61zm26.269.612c0 1.832-1.833 4.276-4.277 3.054h-7.941c-1.833 0-4.277-1.833-4.277-4.276v-7.331c0-1.833 1.833-4.277 4.277-3.055h7.941c1.833 0 4.277 1.833 4.277 4.277v7.33zM0 193.685c0 13.44 12.83 23.215 27.491 23.215l206.489-10.386c12.218-.61 21.993-10.385 21.993-22.603V50.12L0 42.179v151.506zm114.852-96.524c-4.888-4.887-4.888-12.218 0-17.106 4.887-4.887 12.829-4.276 17.716 0l34.822 32.379c4.888 4.276 4.888 12.218 0 15.273l-34.822 32.989c-4.887 4.887-12.829 4.887-17.716 0-4.888-4.276-4.888-12.218 0-17.106l26.27-24.436c0 2.443-26.27-21.993-26.27-21.993z" fill="#CCADD2"/></svg>
